X:1
T:Marut margaritar
T:Marut margaritar
L:1/8
Q:1/4=60
M:2/4
K:C
V:1 treble+8 nm="Recorder" snm="Rec."
V:1
"^A" dd dB | cB AG | G2 GD | GA B2 | dd dB | c2 B2 | A (A3 | A4) ::"^B-SiBemol" cc cA | _BA GF | %10
w: 8 8 8 6|7 6 5 4|4 4 1|4 5 6|8 8 8 6|7 6|5 5|5|7 7 7 5|6\5 5 4 3|
w: re re re si|do si la sol|sol sol re|sol la si|re re re si|do si|la la|la|do do do la|sib la sol fa|
 F2 FC | FG A2 | cc cA | _B2 A2 | G (G3 | G4) ::"^C" gg ge | fe dc | c2 cG | cd e2 | gg ge | %21
w: 3 3 0|3 4 5|7 7 7 5|6\5 5|4 4|4|\-4 \-4 \-4 \-2|\-3 \-2 8 7|7 7 4|7 8 \-2|\-4 \-4 \-4 \-2|
w: fa fa do|fa sol la|do do do la|sib la|sol sol|sol|sol sol sol mi|fa mi re do|do do sol|do re mi|sol sol sol mi|
 f2 e2 | d (d3 | d4) ::"^D-romanian Flute\n\n" BB B^G | A^G ^FE | E2 EB, | E^F ^G2 | BB B^G | %29
w: \-3 \-2|8 8|8||||||
w: fa mi|re re|re||||||
 A2 ^G2 | ^F (F3 | ^F4) :| %32
w: |||
w: |||

